!!!OTL: MAIEKAEFER FRICO FRICO
!!!ARE: Europa, Mitteleuropa, Deutschland; France, Elsass
!!!SCT: E1852
!!!YEM: Copyright 1995, estate of Helmut Schaffrath.
**kern
*ICvox
*Ivox
*M3/8
*k[b-]
*F:
{16cc
16cc
=1
8cc
8a
8dd
=2
8cc
8a
8dd
=3
8cc
8a}
{8cc
=4
8.cc
16b-
8b-
=5
4a
8cc
=6
8.cc
16b-
8b-
=7
4a
8r}
=8
{4cc
8cc
=9
8.cc
16cc
8dd
=10
4.cc
=11
4a}
{8a
=12
8cc
8cc
8cc
=13
8.cc
16cc
8dd
=14
4.cc
=15
4a}
==
!!!AGN: Kinder - Lied, Tier - Lied
!!!ONB: ESAC (Essen Associative Code) Database: ERK3
!!!AMT: simple triple
!!!AIN: vox
!!!EED: Helmut Schaffrath
!!!EEV: 1.0
*-
